projects_img/truedentify/logo.svg

<svg height="29" viewBox="0 0 205 29" width="205" xmlns="http://www.w3.org/2000/svg" xmlns:xlink="http://www.w3.org/1999/xlink"><linearGradient id="a" x1="50%" x2="50%" y1="0%" y2="100%"><stop offset="0" stop-color="#33eac6"/><stop offset="1" stop-color="#53e7fc"/></linearGradient><g fill="none" fill-rule="evenodd"><path d="m24.3283013 5c-.9834664.00967044-2.0132422.27439878-3.0235193.95979132-1.9242793 1.30792722-8.4015082 10.32198758-11.0058052 10.35099888-2.83828149 0-4.46642408-5.6330322-7.11215579-5.622153-2.11317309 0-3.17341564.8062731-3.18682101 1.8301311v.0410994c.13770967 1.1471561 1.90234325 3.6445476 3.99845497 6.0138058 2.47511796 2.7995928 5.41454904 5.4227001 6.67587213 5.4263265h.0121866c2.9991459-.0326377 15.4929467-12.9015778 19.0222139-15.67578572.1925498-.15230946.2888247-.39890572.291262-.64429317v-.00120881c.0012187-.26110192-.1048056-.51978623-.3156354-.66000763-1.0054024-.66726047-3.0076766-1.99815498-5.252466-2.01870467z" fill="url(#a)"/><g fill="#000" transform="translate(37)"><path d="m2.11810071 5.01479137c0-.53910792.4615152-1.01479137.9833661-1.01479137.55148949 0 .98124905.47568345.98124905 1.01479137v3.33087769h1.99637079c.5218509 0 .92091335.412259.92091335.95136691s-.39906245.95136693-.92091335.95136693h-1.99637079v8.7547626c0 1.3647194.73778921 2.0941007 1.78149101 2.0941007.5218509 0 .95161046.4111655.95161046.9513669 0 .5391079-.42975956.9513669-.95161046.9513669-2.42507183 0-3.74610616-1.6807482-3.74610616-3.9968345v-8.7547626h-1.19718736c-.5218509 0-.92091335-.41225902-.92091335-.95136693s.39906245-.95136691.92091335-.95136691h1.19718736z"/><path d="m16.1877118 10.5310932c.6836599-1.4553786 2.3928098-2.5310932 4.7514366-2.5310932.5811109 0 1.0608516.44185032 1.0608516.9807986 0 .5378573-.4797407.98079861-1.0608516.98079861-3.1448357 0-4.7514366 2.02487449-4.7514366 4.93672269v7.0881518c0 .570587-.478562 1.0135283-1.0950346 1.0135283-.6141152 0-1.0926772-.4429413-1.0926772-1.0135283v-12.84747977c0-.56949597.478562-1.01352826 1.0926772-1.01352826.6164726 0 1.0950346.44403229 1.0950346 1.01352826z"/><path d="m28.0641335 9.01030629v8.24248801c0 2.0532733.6761816 3.8213093 3.9347544 3.8213093 3.2585727 0 3.9358665-1.768036 3.9358665-3.8213093v-8.24248801c0-.56829729.4848934-1.01030629 1.0643188-1.01030629.5482855 0 1.0009268.442009 1.0009268 1.01030629v8.24248801c0 3.0004355-1.0009268 5.7472057-6.0011121 5.7472057-4.9679333 0-5.9988879-2.7467702-5.9988879-5.7472057v-8.24248801c0-.56829729.4515292-1.01030629 1.0309546-1.01030629.5482854 0 1.0331789.442009 1.0331789 1.01030629"/><path d="m50.7449635 9.92889908c-2.8481243 0-4.4195033 1.86353212-4.6170545 4.82339452h8.8085273c0-2.3944954-.8184266-4.82339452-4.1914728-4.82339452m0-1.92889908c5.2401876 0 6.2550365 4.2236239 6.2550365 6.4862385 0 .9644496 0 2.1295872-1.3094825 2.1295872h-9.5626085c0 3.2924312 1.8660125 5.4220183 4.9444251 5.4220183 1.8998785 0 3.0129386-.7327981 3.9295763-1.4300458.1964224-.1341743.3284995-.2006881.590396-.2006881.5237929 0 .9493747.4334862.9493747.9655963 0 .3658257-.1648141.565367-.3612365.7649083-.4899271.4988532-2.1933831 1.8623853-5.1081105 1.8623853-4.3540291 0-7.0723341-2.4277523-7.0723341-8.0172018 0-5.1227065 2.4880167-7.9827982 6.7449635-7.9827982"/><path d="m73.9255438 12.910699s-1.2328261-2.91355207-4.2796836-2.91355207c-2.9507351 0-4.571404 1.95378027-4.571404 6.02567757 0 4.1380885 1.5882555 6.057632 4.571404 6.057632 2.4958301 0 4.2796836-1.4562054 4.2796836-4.6014265zm0-2.681883v-9.16861629c0-.59686162.4526696-1.06019971 1.0372281-1.06019971.5834408 0 1.0372281.46333809 1.0372281 1.06019971v16.41883029c0 4.3697574-2.657897 6.52097-6.3541398 6.52097-4.1824435 0-6.6458602-2.5483595-6.6458602-7.9771755 0-5.4288159 2.3337632-7.94522108 6.5162067-7.94522108 2.0744562 0 3.6627117 1.09215407 4.4093371 2.15121258z"/><path d="m89.7449635 9.92889908c-2.8481243 0-4.4195033 1.86353212-4.6170545 4.82339452h8.8085273c0-2.3944954-.8184266-4.82339452-4.1914728-4.82339452m0-1.92889908c5.2401876 0 6.2550365 4.2236239 6.2550365 6.4862385 0 .9644496 0 2.1295872-1.3094825 2.1295872h-9.5626085c0 3.2924312 1.8660125 5.4220183 4.9444251 5.4220183 1.8998785 0 3.0129386-.7327981 3.9295763-1.4300458.1964224-.1341743.3284995-.2006881.590396-.2006881.5237929 0 .9493747.4334862.9493747.9655963 0 .3658257-.1648141.565367-.3612365.7649083-.4899271.4988532-2.1933831 1.8623853-5.1081105 1.8623853-4.3540291 0-7.0723341-2.4277523-7.0723341-8.0172018 0-5.1227065 2.4880167-7.9827982 6.7449635-7.9827982"/><path d="m115 13.5776056v8.4142101c0 .5671037-.477561 1.0081843-1.092743 1.0081843-.614007 0-1.090391-.4410806-1.090391-1.0081843v-8.0046353c0-2.4900413-.78574-4.1913522-4.09573-4.1913522-3.377035 0-4.536825 1.8903455-4.536825 4.4118925v7.784095c0 .5671037-.478737 1.0081843-1.092744 1.0081843-.614006 0-1.091567-.4410806-1.091567-1.0081843v-12.7945969c0-.56710364.477561-1.00818425 1.091567-1.00818425.614007 0 1.092744.44108061 1.092744 1.00818425v1.0081843c.646941-1.19721885 2.31958-2.2054031 4.536825-2.2054031 5.254344 0 6.278864 2.8985297 6.278864 5.5776056"/><path d="m122.118101 5.01479137c0-.53910792.461515-1.01479137.983366-1.01479137.551489 0 .981249.47568345.981249 1.01479137v3.33087769h1.996371c.521851 0 .920913.412259.920913.95136691s-.399062.95136693-.920913.95136693h-1.996371v8.7547626c0 1.3647194.737789 2.0941007 1.781491 2.0941007.521851 0 .95161.4111655.95161.9513669 0 .5391079-.429759.9513669-.95161.9513669-2.425072 0-3.746106-1.6807482-3.746106-3.9968345v-8.7547626h-1.197188c-.521851 0-.920913-.41225902-.920913-.95136693s.399062-.95136691.920913-.95136691h1.197188z"/><path d="m135.842105 22.0033294c0 .5606272-.368421.9966706-.843012.9966706-.472777 0-.841198-.4360434-.841198-.9966706v-12.6484803c0-.56062721.368421-.9966706.841198-.9966706.474591 0 .843012.43604339.843012.9966706zm-1.842105-17.75749114c0-.90323274.368421-1.24583826.999093-1.24583826.632486 0 1.000907.34260552 1.000907 1.24583826 0 .74750295-.368421 1.18354634-1.000907 1.18354634-.630672 0-.999093-.43604339-.999093-1.18354634z"/><path d="m143.010975 10.2379863c-.572886 0-1.010975-.41259579-1.010975-.9521441 0-.5395483.438089-.95214406 1.010975-.95214406h1.145771v-1.87364441c0-2.8564322 1.71982-5.46005373 5.831117-5.46005373.572886 0 1.012137.41259576 1.012137.95214407 0 .5395483-.439251.95214406-1.012137.95214406-2.628534 0-3.673208 1.49278679-3.673208 3.5557656v1.87364441h3.066623c.574048 0 1.012137.41259576 1.012137.95214406 0 .53954831-.438089.9521441-1.012137.9521441h-3.066623v11.7452989c0 .5723809-.471789 1.0167148-1.079536 1.0167148-.605422 0-1.078373-.4443339-1.078373-1.0167148v-11.7452989z"/><path d="m160.076389 22.031302-5.607639-12.57466722c-.032407-.09499792-.100694-.22166182-.100694-.44332363 0-.56998752.471064-1.01331115 1.075231-1.01331115s.872685.34832571 1.006944.66498544l4.733797 10.92803656 4.733796-10.92803656c.134259-.31665973.403935-.66498544 1.006945-.66498544.604166 0 1.075231.44332363 1.075231 1.01331115 0 .22166181-.068287.34832571-.100694.44332363l-6.614584 14.85570922c-1.377315 3.1032654-3.08912 4.687656-6.277778 4.687656-.570601 0-1.006944-.4127496-1.006944-.9510711 0-.5372296.436343-.9499792 1.006944-.9499792 2.921297 0 3.693287-1.8682925 5.069445-5.0676477"/></g></g></svg>

<?xml version="1.0" encoding="UTF-8"?>
<svg width="205px" height="29px" viewBox="0 0 205 29" version="1.1" xmlns="http://www.w3.org/2000/svg" xmlns:xlink="http://www.w3.org/1999/xlink">
    <!-- Generator: Sketch 52.5 (67469) - http://www.bohemiancoding.com/sketch -->
    <title>Group</title>
    <desc>Created with Sketch.</desc>
    <defs>
        <linearGradient x1="50%" y1="0%" x2="50%" y2="100%" id="linearGradient-1">
            <stop stop-color="#33EAC6" offset="0%"></stop>
            <stop stop-color="#53E7FC" offset="100%"></stop>
        </linearGradient>
    </defs>
    <g id="Page-1" stroke="none" stroke-width="1" fill="none" fill-rule="evenodd">
        <g id="Desktop-HD" transform="translate(-55.000000, -42.000000)">
            <g id="Group" transform="translate(55.000000, 42.000000)">
                <path d="M24.3283013,5 C23.3448349,5.00967044 22.3150591,5.27439878 21.304782,5.95979132 C19.3805027,7.26771854 12.9032738,16.2817789 10.2989768,16.3107902 C7.46069531,16.3107902 5.83255272,10.677758 3.18682101,10.6886372 C1.07364792,10.6886372 0.0134053656,11.4949103 0,12.5187683 L0,12.5598677 C0.137709665,13.7070238 1.90234325,16.2044153 3.99845497,18.5736735 C6.47357293,21.3732663 9.41300401,23.9963736 10.6743271,24 L10.6865137,24 C13.6856596,23.9673623 26.1794604,11.0984222 29.7087276,8.32421428 C29.9012774,8.17190482 29.9975523,7.92530856 29.9999896,7.67992111 L29.9999896,7.6787123 C30.0012083,7.41761038 29.895184,7.15892607 29.6843542,7.01870467 C28.6789518,6.3514442 26.6766776,5.02054969 24.4318882,5 L24.3283013,5 Z" id="Fill-1" fill="url(#linearGradient-1)"></path>
                <g id="Group-Copy-2" transform="translate(37.000000, 0.000000)" fill="#000000">
                    <path d="M2.11810071,5.01479137 C2.11810071,4.47568345 2.57961591,4 3.10146681,4 C3.6529563,4 4.08271586,4.47568345 4.08271586,5.01479137 L4.08271586,8.34566906 L6.07908665,8.34566906 C6.60093755,8.34566906 7,8.75792806 7,9.29703597 C7,9.83614388 6.60093755,10.2484029 6.07908665,10.2484029 L4.08271586,10.2484029 L4.08271586,19.0031655 C4.08271586,20.3678849 4.82050507,21.0972662 5.86420687,21.0972662 C6.38605777,21.0972662 6.81581733,21.5084317 6.81581733,22.0486331 C6.81581733,22.587741 6.38605777,23 5.86420687,23 C3.43913504,23 2.11810071,21.3192518 2.11810071,19.0031655 L2.11810071,10.2484029 L0.920913352,10.2484029 C0.399062453,10.2484029 0,9.83614388 0,9.29703597 C0,8.75792806 0.399062453,8.34566906 0.920913352,8.34566906 L2.11810071,8.34566906 L2.11810071,5.01479137 Z" id="Fill-1"></path>
                    <path d="M16.1877118,10.5310932 C16.8713717,9.0757146 18.5805216,8 20.9391484,8 C21.5202593,8 22,8.44185032 22,8.9807986 C22,9.5186559 21.5202593,9.96159721 20.9391484,9.96159721 C17.7943127,9.96159721 16.1877118,11.9864717 16.1877118,14.8983199 L16.1877118,21.9864717 C16.1877118,22.5570587 15.7091498,23 15.0926772,23 C14.478562,23 14,22.5570587 14,21.9864717 L14,9.13899193 C14,8.56949596 14.478562,8.12546367 15.0926772,8.12546367 C15.7091498,8.12546367 16.1877118,8.56949596 16.1877118,9.13899193 L16.1877118,10.5310932 Z" id="Fill-3"></path>
                    <path d="M28.0641335,9.01030629 L28.0641335,17.2527943 C28.0641335,19.3060676 28.7403151,21.0741036 31.9988879,21.0741036 C35.2574606,21.0741036 35.9347544,19.3060676 35.9347544,17.2527943 L35.9347544,9.01030629 C35.9347544,8.442009 36.4196478,8 36.9990732,8 C37.5473587,8 38,8.442009 38,9.01030629 L38,17.2527943 C38,20.2532298 36.9990732,23 31.9988879,23 C27.0309546,23 26,20.2532298 26,17.2527943 L26,9.01030629 C26,8.442009 26.4515292,8 27.0309546,8 C27.57924,8 28.0641335,8.442009 28.0641335,9.01030629" id="Fill-5"></path>
                    <path d="M50.7449635,9.92889908 C47.8968392,9.92889908 46.3254602,11.7924312 46.127909,14.7522936 L54.9364363,14.7522936 C54.9364363,12.3577982 54.1180097,9.92889908 50.7449635,9.92889908 M50.7449635,8 C55.9851511,8 57,12.2236239 57,14.4862385 C57,15.4506881 57,16.6158257 55.6905175,16.6158257 L46.127909,16.6158257 C46.127909,19.9082569 47.9939215,22.037844 51.0723341,22.037844 C52.9722126,22.037844 54.0852727,21.3050459 55.0019104,20.6077982 C55.1983328,20.4736239 55.3304099,20.4071101 55.5923064,20.4071101 C56.1160993,20.4071101 56.5416811,20.8405963 56.5416811,21.3727064 C56.5416811,21.7385321 56.376867,21.9380734 56.1804446,22.1376147 C55.6905175,22.6364679 53.9870615,24 51.0723341,24 C46.718305,24 44,21.5722477 44,15.9827982 C44,10.8600917 46.4880167,8 50.7449635,8" id="Fill-7"></path>
                    <path d="M73.9255438,12.910699 C73.9255438,12.910699 72.6927177,9.99714693 69.6458602,9.99714693 C66.6951251,9.99714693 65.0744562,11.9509272 65.0744562,16.0228245 C65.0744562,20.160913 66.6627117,22.0804565 69.6458602,22.0804565 C72.1416903,22.0804565 73.9255438,20.6242511 73.9255438,17.47903 L73.9255438,12.910699 Z M73.9255438,10.228816 L73.9255438,1.06019971 C73.9255438,0.463338088 74.3782134,0 74.9627719,0 C75.5462127,0 76,0.463338088 76,1.06019971 L76,17.47903 C76,21.8487874 73.342103,24 69.6458602,24 C65.4634167,24 63,21.4516405 63,16.0228245 C63,10.5940086 65.3337632,8.07760342 69.5162067,8.07760342 C71.5906629,8.07760342 73.1789184,9.16975749 73.9255438,10.228816 Z" id="Fill-9"></path>
                    <path d="M89.7449635,9.92889908 C86.8968392,9.92889908 85.3254602,11.7924312 85.127909,14.7522936 L93.9364363,14.7522936 C93.9364363,12.3577982 93.1180097,9.92889908 89.7449635,9.92889908 M89.7449635,8 C94.9851511,8 96,12.2236239 96,14.4862385 C96,15.4506881 96,16.6158257 94.6905175,16.6158257 L85.127909,16.6158257 C85.127909,19.9082569 86.9939215,22.037844 90.0723341,22.037844 C91.9722126,22.037844 93.0852727,21.3050459 94.0019104,20.6077982 C94.1983328,20.4736239 94.3304099,20.4071101 94.5923064,20.4071101 C95.1160993,20.4071101 95.5416811,20.8405963 95.5416811,21.3727064 C95.5416811,21.7385321 95.376867,21.9380734 95.1804446,22.1376147 C94.6905175,22.6364679 92.9870615,24 90.0723341,24 C85.718305,24 83,21.5722477 83,15.9827982 C83,10.8600917 85.4880167,8 89.7449635,8" id="Fill-12"></path>
                    <path d="M115,13.5776056 L115,21.9918157 C115,22.5589194 114.522439,23 113.907257,23 C113.29325,23 112.816866,22.5589194 112.816866,21.9918157 L112.816866,13.9871804 C112.816866,11.4971391 112.031126,9.7958282 108.721136,9.7958282 C105.344101,9.7958282 104.184311,11.6861737 104.184311,14.2077207 L104.184311,21.9918157 C104.184311,22.5589194 103.705574,23 103.091567,23 C102.477561,23 102,22.5589194 102,21.9918157 L102,9.1972188 C102,8.63011516 102.477561,8.18903455 103.091567,8.18903455 C103.705574,8.18903455 104.184311,8.63011516 104.184311,9.1972188 L104.184311,10.2054031 C104.831252,9.00818425 106.503891,8 108.721136,8 C113.97548,8 115,10.8985297 115,13.5776056" id="Fill-14"></path>
                    <path d="M122.118101,5.01479137 C122.118101,4.47568345 122.579616,4 123.101467,4 C123.652956,4 124.082716,4.47568345 124.082716,5.01479137 L124.082716,8.34566906 L126.079087,8.34566906 C126.600938,8.34566906 127,8.75792806 127,9.29703597 C127,9.83614388 126.600938,10.2484029 126.079087,10.2484029 L124.082716,10.2484029 L124.082716,19.0031655 C124.082716,20.3678849 124.820505,21.0972662 125.864207,21.0972662 C126.386058,21.0972662 126.815817,21.5084317 126.815817,22.0486331 C126.815817,22.587741 126.386058,23 125.864207,23 C123.439135,23 122.118101,21.3192518 122.118101,19.0031655 L122.118101,10.2484029 L120.920913,10.2484029 C120.399062,10.2484029 120,9.83614388 120,9.29703597 C120,8.75792806 120.399062,8.34566906 120.920913,8.34566906 L122.118101,8.34566906 L122.118101,5.01479137 Z" id="Fill-16"></path>
                    <path d="M135.842105,22.0033294 C135.842105,22.5639566 135.473684,23 134.999093,23 C134.526316,23 134.157895,22.5639566 134.157895,22.0033294 L134.157895,9.3548491 C134.157895,8.79422189 134.526316,8.3581785 134.999093,8.3581785 C135.473684,8.3581785 135.842105,8.79422189 135.842105,9.3548491 L135.842105,22.0033294 Z M134,4.24583826 C134,3.34260552 134.368421,3 134.999093,3 C135.631579,3 136,3.34260552 136,4.24583826 C136,4.99334121 135.631579,5.4293846 134.999093,5.4293846 C134.368421,5.4293846 134,4.99334121 134,4.24583826 Z" id="Fill-18"></path>
                    <path d="M143.010975,10.2379863 C142.438089,10.2379863 142,9.82539051 142,9.2858422 C142,8.7462939 142.438089,8.33369814 143.010975,8.33369814 L144.156746,8.33369814 L144.156746,6.46005373 C144.156746,3.60362153 145.876566,1 149.987863,1 C150.560749,1 151,1.41259576 151,1.95214407 C151,2.49169237 150.560749,2.90428813 149.987863,2.90428813 C147.359329,2.90428813 146.314655,4.39707492 146.314655,6.46005373 L146.314655,8.33369814 L149.381278,8.33369814 C149.955326,8.33369814 150.393415,8.7462939 150.393415,9.2858422 C150.393415,9.82539051 149.955326,10.2379863 149.381278,10.2379863 L146.314655,10.2379863 L146.314655,21.9832852 C146.314655,22.5556661 145.842866,23 145.235119,23 C144.629697,23 144.156746,22.5556661 144.156746,21.9832852 L144.156746,10.2379863 L143.010975,10.2379863 Z" id="Fill-20"></path>
                    <path d="M160.076389,22.031302 L154.46875,9.45663478 C154.436343,9.36163686 154.368056,9.23497296 154.368056,9.01331115 C154.368056,8.44332363 154.83912,8 155.443287,8 C156.047454,8 156.315972,8.34832571 156.450231,8.66498544 L161.184028,19.593022 L165.917824,8.66498544 C166.052083,8.34832571 166.321759,8 166.924769,8 C167.528935,8 168,8.44332363 168,9.01331115 C168,9.23497296 167.931713,9.36163686 167.899306,9.45663478 L161.284722,24.312344 C159.907407,27.4156094 158.195602,29 155.006944,29 C154.436343,29 154,28.5872504 154,28.0489289 C154,27.5116993 154.436343,27.0989497 155.006944,27.0989497 C157.928241,27.0989497 158.700231,25.2306572 160.076389,22.031302" id="Fill-22"></path>
                </g>
            </g>
        </g>
    </g>
</svg>
